X:13050
T:Major Mackie's Jig
R:Jig
C:Trad.
O:Scotland
Z:Paul Hardy's Session Tunebook 2022 (see www.paulhardy.net). Creative Commons cc by-nc-sa licenced.
M:6/8
L:1/8
Q:3/8=100
K:D
A|"D"ABc dcd|"Em"B2e e2d|"A7"c2a a^ga|"D"f2d "G"dcB|"D"ABc dcd|"Em"B2e e2d|"A7"c2a gfe|"D"d3 d2:|
|:e|"Bm"f2f def|"Em"g2B g2f|"A7"e2e cde|"D"f2A f2e|"Bm"d2d def|"Em"g2B e2d|"A7"c2a gfe|"D"d3 d2:|

